Lila_HD/devices/scalable/drive-optical-symbolic.svg

<?xml version="1.0" encoding="UTF-8" standalone="no"?>
<!-- Created with Inkscape (http://www.inkscape.org/) -->

<svg
   xmlns:dc="http://purl.org/dc/elements/1.1/"
   xmlns:cc="http://creativecommons.org/ns#"
   xmlns:rdf="http://www.w3.org/1999/02/22-rdf-syntax-ns#"
   xmlns:svg="http://www.w3.org/2000/svg"
   xmlns="http://www.w3.org/2000/svg"
   xmlns:sodipodi="http://sodipodi.sourceforge.net/DTD/sodipodi-0.dtd"
   xmlns:inkscape="http://www.inkscape.org/namespaces/inkscape"
   width="15.999998"
   height="15.999998"
   id="svg13094"
   version="1.1"
   inkscape:version="0.48.3.1 r9886"
   sodipodi:docname="drive-harddisk.svg">
  <sodipodi:namedview
     id="base"
     pagecolor="#ffffff"
     bordercolor="#666666"
     borderopacity="1.0"
     inkscape:pageopacity="0.0"
     inkscape:pageshadow="2"
     inkscape:zoom="45.254834"
     inkscape:cx="6.9598353"
     inkscape:cy="7.6507953"
     inkscape:document-units="px"
     inkscape:current-layer="layer1"
     showgrid="true"
     inkscape:snap-bbox="true"
     inkscape:bbox-paths="true"
     inkscape:bbox-nodes="true"
     inkscape:snap-bbox-edge-midpoints="true"
     inkscape:snap-bbox-midpoints="true"
     inkscape:object-paths="true"
     inkscape:snap-intersection-paths="true"
     inkscape:object-nodes="true"
     inkscape:snap-smooth-nodes="true"
     inkscape:snap-midpoints="true"
     inkscape:snap-object-midpoints="true"
     inkscape:snap-center="true"
     showguides="false"
     inkscape:guide-bbox="true"
     inkscape:window-width="1920"
     inkscape:window-height="1033"
     inkscape:window-x="-2"
     inkscape:window-y="25"
     inkscape:window-maximized="1"
     inkscape:snap-global="true"
     fit-margin-top="0"
     fit-margin-left="0"
     fit-margin-right="0"
     fit-margin-bottom="0"
     showborder="true"
     inkscape:showpageshadow="false">
    <sodipodi:guide
       orientation="0,1"
       position="-25.000005,930.61286"
       id="guide4700" />
    <sodipodi:guide
       orientation="0,1"
       position="576.71887,328.89388"
       id="guide4702" />
    <sodipodi:guide
       orientation="1,0"
       position="576.71899,489.70395"
       id="guide4706" />
    <sodipodi:guide
       orientation="1,0"
       position="54.999996,930.61286"
       id="guide4708" />
    <sodipodi:guide
       orientation="0,1"
       position="-25.000005,850.61296"
       id="guide4710" />
    <sodipodi:guide
       orientation="0,1"
       position="536.71887,408.8938"
       id="guide4712" />
    <sodipodi:guide
       orientation="1,0"
       position="496.71887,408.8938"
       id="guide4714" />
    <inkscape:grid
       type="xygrid"
       id="grid3216"
       empspacing="5"
       visible="true"
       enabled="true"
       snapvisiblegridlinesonly="true"
       originx="-24.999951px"
       originy="-219.00005px" />
    <sodipodi:guide
       orientation="-0.70710664,0.70710692"
       position="4.0000502,-246.00005"
       id="guide3847" />
    <sodipodi:guide
       orientation="0.70710594,0.70710762"
       position="5.0000502,-245.00005"
       id="guide3849" />
    <sodipodi:guide
       orientation="-0.70710681,0.70710676"
       position="7.0000502,-212.00005"
       id="guide3851" />
  </sodipodi:namedview>
  <defs
     id="defs13096" />
  <metadata
     id="metadata13099">
    <rdf:RDF>
      <cc:Work
         rdf:about="">
        <dc:format>image/svg+xml</dc:format>
        <dc:type
           rdf:resource="http://purl.org/dc/dcmitype/StillImage" />
        <dc:title />
      </cc:Work>
    </rdf:RDF>
  </metadata>
  <g
     transform="translate(9379.308,-4843.1988)"
     id="layer1"
     inkscape:groupmode="layer"
     inkscape:label="Camada 1">
    <path
       style="color:#000000;fill:#999999;fill-opacity:0.91237116000000003;fill-rule:nonzero;stroke:none;stroke-width:57.89288330000000116;marker:none;visibility:visible;display:inline;overflow:visible;enable-background:accumulate"
       d="M 8 0 C 3.5817 0 0 3.5817 0 8 C 0 12.4183 3.5817 16 8 16 C 12.4183 16 16 12.4183 16 8 C 16 3.5817 12.4183 0 8 0 z M 5.875 2.40625 L 6.96875 5.21875 C 6.79825 5.28275 6.62295 5.3453 6.46875 5.4375 L 4.6875 3 C 5.0575375 2.7539773 5.4533754 2.5661422 5.875 2.40625 z M 4.1875 3.375 L 5.96875 5.78125 C 5.48955 6.22035 5.1776 6.8317 5.0625 7.5 L 2.09375 7 C 2.3362816 5.5429223 3.0958931 4.2758675 4.1875 3.375 z M 8 7 C 8.5523 7 9 7.4477 9 8 C 9 8.5523 8.5523 9 8 9 C 7.4477 9 7 8.5523 7 8 C 7 7.4477 7.4477 7 8 7 z M 10.9375 8.5 L 13.90625 9 C 13.663718 10.457078 12.904107 11.724132 11.8125 12.625 L 10.03125 10.21875 C 10.51055 9.77975 10.8224 9.1683 10.9375 8.5 z M 9.53125 10.5625 L 11.3125 13 C 10.942463 13.246023 10.546625 13.433858 10.125 13.59375 L 9.03125 10.78125 C 9.20185 10.71725 9.37715 10.6547 9.53125 10.5625 z "
       transform="translate(-9379.308,4843.1988)"
       id="path3084" />
    <path
       transform="matrix(1.1428572,0,0,1.1428572,-9398.6589,4842.0559)"
       d="m 15.000049,8.0000477 a 7,7 0 1 1 -14.0000004,0 7,7 0 1 1 14.0000004,0 z"
       sodipodi:ry="7"
       sodipodi:rx="7"
       sodipodi:cy="8.0000477"
       sodipodi:cx="8.0000486"
       id="path2996"
       style="color:#000000;fill:#000000;fill-opacity:1;fill-rule:nonzero;stroke:none;stroke-width:0.05312965;marker:none;visibility:visible;display:inline;overflow:visible;enable-background:accumulate"
       sodipodi:type="arc" />
    <path
       style="color:#000000;fill:#cccccc;fill-opacity:1;fill-rule:nonzero;stroke:none;stroke-width:0.05312965;marker:none;visibility:visible;display:inline;overflow:visible;enable-background:accumulate"
       d="m -9391.985,4844.658 c -2.3403,0.8814 -4.0312,2.9345 -4.4416,5.3991 l 6.9068,1.1386 -2.4691,-6.541 z m 2.469,6.5408 2.4691,6.5408 c 2.3403,-0.8814 4.0312,-2.9346 4.4416,-5.3991 l -6.9068,-1.1386 z"
       id="path3770"
       inkscape:connector-curvature="0" />
    <path
       sodipodi:type="arc"
       style="color:#000000;fill:#000000;fill-opacity:1;fill-rule:nonzero;stroke:none;stroke-width:0.05312965;marker:none;visibility:visible;display:inline;overflow:visible;enable-background:accumulate"
       id="path3768"
       sodipodi:cx="8.0000486"
       sodipodi:cy="8.0000477"
       sodipodi:rx="7"
       sodipodi:ry="7"
       d="m 15.000049,8.0000477 a 7,7 0 1 1 -14.0000004,0 7,7 0 1 1 14.0000004,0 z"
       transform="matrix(0.42856724,0,0,0.42856724,-9392.9445,4847.7703)" />
    <rect
       style="color:#000000;fill:#000000;fill-opacity:1;fill-rule:nonzero;stroke:none;stroke-width:0.05312965;marker:none;visibility:visible;display:inline;overflow:visible;enable-background:accumulate"
       id="rect3783"
       width="0.60698849"
       height="15.690509"
       x="-10433.362"
       y="-1695.5706"
       transform="matrix(0.80372591,-0.59499971,0.59499971,0.80372591,0,0)" />
    <path
       sodipodi:type="arc"
       style="color:#000000;fill:#cccccc;fill-opacity:1;fill-rule:nonzero;stroke:none;stroke-width:0.05312965;marker:none;visibility:visible;display:inline;overflow:visible;enable-background:accumulate"
       id="path2994"
       sodipodi:cx="8.0000486"
       sodipodi:cy="8.0000477"
       sodipodi:rx="7"
       sodipodi:ry="7"
       d="m 15.000049,8.0000477 a 7,7 0 1 1 -14.0000004,0 7,7 0 1 1 14.0000004,0 z"
       transform="matrix(0.1428509,0,0,0.1428509,-9390.6587,4850.0561)" />
  </g>
</svg>

<?xml version="1.0" encoding="UTF-8"?>
<!-- Created with Inkscape (http://www.inkscape.org/) -->
<svg version="1.1" viewBox="0 0 16 16" xmlns="http://www.w3.org/2000/svg" xmlns:cc="http://creativecommons.org/ns#" xmlns:dc="http://purl.org/dc/elements/1.1/" xmlns:rdf="http://www.w3.org/1999/02/22-rdf-syntax-ns#">
<metadata>
<rdf:RDF>
<cc:Work rdf:about="">
<dc:format>image/svg+xml</dc:format>
<dc:type rdf:resource="http://purl.org/dc/dcmitype/StillImage"/>
<dc:title/>
</cc:Work>
</rdf:RDF>
</metadata>
<g transform="translate(9379.3 -4843.2)">
<path transform="translate(-9379.3 4843.2)" d="m8 0c-4.4183 0-8 3.5817-8 8s3.5817 8 8 8 8-3.5817 8-8-3.5817-8-8-8zm-2.125 2.4062 1.0938 2.8125c-0.1705 0.064-0.3458 0.12655-0.5 0.21875l-1.7812-2.4375c0.37004-0.24602 0.76588-0.43386 1.1875-0.59375zm-1.6875 0.96875 1.7812 2.4062c-0.4792 0.4391-0.79115 1.0504-0.90625 1.7188l-2.9688-0.5c0.24253-1.4571 1.0021-2.7241 2.0938-3.625zm3.8125 3.625c0.5523 0 1 0.4477 1 1s-0.4477 1-1 1-1-0.4477-1-1 0.4477-1 1-1zm2.9375 1.5 2.9688 0.5c-0.24253 1.4571-1.0021 2.7241-2.0938 3.625l-1.7812-2.4062c0.4793-0.439 0.79115-1.0504 0.90625-1.7188zm-1.4062 2.0625 1.7812 2.4375c-0.37004 0.24602-0.76588 0.43386-1.1875 0.59375l-1.0938-2.8125c0.1706-0.064 0.3459-0.12655 0.5-0.21875z" color="#000000" fill="#999" fill-opacity=".91237"/>
<path transform="matrix(1.1429 0 0 1.1429 -9398.7 4842.1)" d="m15 8a7 7 0 1 1-14 0 7 7 0 1 1 14 0z" color="#000000"/>
<path d="m-9392 4844.7c-2.3403 0.8814-4.0312 2.9345-4.4416 5.3991l6.9068 1.1386-2.4691-6.541zm2.469 6.5408 2.4691 6.5408c2.3403-0.8814 4.0312-2.9346 4.4416-5.3991l-6.9068-1.1386z" color="#000000" fill="#ccc"/>
<path transform="matrix(.42857 0 0 .42857 -9392.9 4847.8)" d="m15 8a7 7 0 1 1-14 0 7 7 0 1 1 14 0z" color="#000000"/>
<rect transform="matrix(.80373 -.595 .595 .80373 0 0)" x="-10433" y="-1695.6" width=".60699" height="15.691" color="#000000"/>
<path transform="matrix(.14285 0 0 .14285 -9390.7 4850.1)" d="m15 8a7 7 0 1 1-14 0 7 7 0 1 1 14 0z" color="#000000" fill="#ccc"/>
</g>
</svg>
